jhotdraw8/src/main/java/org.jhotdraw8.draw/org/jhotdraw8/draw/action/images/textTool.svg

<?xml version="1.0" encoding="UTF-8" standalone="no"?>
<svg xmlns="http://www.w3.org/2000/svg" baseProfile="full" height="22" version="1.1" viewBox="0 0 22 22" width="22">
  <defs>
    <clipPath id="clipPath1">
      <rect fill="#000000" height="88" width="164"/>
    </clipPath>
  </defs>
  <g class="Drawing" clip-path="url(#clipPath1)" id="drawing1">
    <g class="Layer" id="content">
      <polygon class="Polygon" fill="#000000" id="polygon14"
               points="76.75,50 80.5,58.5 78,58 78,62 75.5,62 75.5,58 73,58.5" stroke="#ffffff"
               transform="translate(-110,-44), matrix(0.9238795325112868,-0.38268343236508956,0.38268343236508956,0.9238795325112868,12.91197366731372,37.63369961338856)"/>
      <g class="Label" id="label4">
        <path d="m10.125,8.61865234375 2.12451171875,4.87060546875 -4.35107421875,0 2.2265625,-4.87060546875 z m0.037109375,-4.8427734375 -7.087890625,15.22412109375 2.32861328125,0 1.595703125,-3.47900390625 6.13232421875,0 1.5029296875,3.47900390625 2.36572265625,0 -6.83740234375,-15.22412109375 z"
              fill="#808080"/>
      </g>
      <rect class="Rectangle" fill="#000000" height="15" id="rectangle14" stroke="#ffffff" stroke-alignment="outer"
            width="1" x="18" y="4"/>
    </g>
  </g>
</svg>

<?xml version="1.0" encoding="UTF-8" standalone="no"?>
<svg xmlns="http://www.w3.org/2000/svg" baseProfile="tiny" height="22" version="1.2" viewBox="0 0 22 22" width="22">
  <defs/>
  <g>
    <g id="content">
      <polygon fill="#000000" id="polygon14" points="76.75,50 80.5,58.5 78,58 78,62 75.5,62 75.5,58 73,58.5"
               stroke="#ffffff"
               transform="translate(-110,-44), matrix(0.9238795325112868,-0.38268343236508956,0.38268343236508956,0.9238795325112868,12.91197366731372,37.63369961338856)"/>
      <rect fill="#000000" height="15" id="rectangle14" stroke="#ffffff" stroke-alignment="outer" width="1" x="18"
            y="4"/>
      <path d="M10.125,8.61865234375 12.24951171875,13.4892578125 7.8984375,13.4892578125 10.125,8.61865234375 Z M10.162109375,3.77587890625 3.07421875,19 5.40283203125,19 6.99853515625,15.52099609375 13.130859375,15.52099609375 14.6337890625,19 16.99951171875,19 10.162109375,3.77587890625 Z"
            fill="#808080" id="combinedpath1"/>
    </g>
  </g>
</svg>
